Adwaita++-Dark/actions/22/view-object-histogram-linear.svg

<svg height="22" viewBox="0 0 22 22" width="22" xmlns="http://www.w3.org/2000/svg">
  <path d="m1 1v12 2h2 12v-2-4h-1v2h-1v1h-1v-1-1h-1v1h-1v-1h-1v-4h-1v-3h-1v-2h-1v3h-1v2h-1v3h-1v-5h-1v-3z" fill="#e6ddff" transform="translate(3 3)"/>
</svg>

<svg xmlns="http://www.w3.org/2000/svg" width="22" height="22" viewBox="0 0 22 22">
 <defs>
  <style id="current-color-scheme" type="text/css">
   .ColorScheme-Text { color:#E6DDFF; } .ColorScheme-Highlight { color:#4285f4; }
  </style>
 </defs>
 <path style="fill:currentColor" class="ColorScheme-Text" d="M 1 1 L 1 13 L 1 15 L 3 15 L 15 15 L 15 13 L 15 9 L 14 9 L 14 11 L 13 11 L 13 12 L 12 12 L 12 11 L 12 10 L 11 10 L 11 11 L 10 11 L 10 10 L 9 10 L 9 6 L 8 6 L 8 3 L 7 3 L 7 1 L 6 1 L 6 4 L 5 4 L 5 6 L 4 6 L 4 9 L 3 9 L 3 4 L 2 4 L 2 1 L 1 1 z" transform="translate(3 3)"/>
</svg>
